aliba_games/img/icon-ramp.svg

<svg width="61" height="14" viewBox="0 0 61 14" fill="none" xmlns="http://www.w3.org/2000/svg">
<g style="mix-blend-mode:luminosity" clip-path="url(#clip0_157_2217)">
<path d="M15.6939 8.23852L13.0432 10.899C12.8186 11.1244 12.8188 11.4908 13.0436 11.7159L15.0692 13.7444C15.4145 14.0852 15.9788 14.0852 16.3241 13.7444L22.5326 7.61657C22.8779 7.27584 22.8779 6.71873 22.5326 6.37801L16.3241 0.255553C15.9788 -0.0851844 15.4145 -0.0851844 15.0692 0.255553L13.0436 2.28409C12.8188 2.50922 12.8186 2.8756 13.0432 3.10098L15.6939 5.76148C16.3844 6.44293 16.3844 7.55707 15.6939 8.23852Z" fill="#0A6E5C"/>
<path d="M7.72265 8.23852L10.3734 10.899C10.5979 11.1244 10.5977 11.4908 10.3729 11.7159L8.34731 13.7444C8.00208 14.0852 7.43771 14.0852 7.09248 13.7444L0.883918 7.61657C0.538694 7.27584 0.538694 6.71873 0.883918 6.37801L7.09248 0.255553C7.43771 -0.0851844 8.00208 -0.0851844 8.34731 0.255553L10.3729 2.28409C10.5977 2.50922 10.5979 2.8756 10.3734 3.10098L7.72265 5.76148C7.03219 6.44293 7.03219 7.55707 7.72265 8.23852Z" fill="#21BF73"/>
<path d="M8.41808 7.50619C8.13847 7.22662 8.13847 6.77337 8.41808 6.49381L11.2022 3.70968C11.4818 3.43011 11.935 3.43011 12.2146 3.70968L14.9987 6.49381C15.2783 6.77337 15.2783 7.22662 14.9987 7.50619L12.2146 10.2903C11.935 10.5699 11.4818 10.5699 11.2022 10.2903L8.41808 7.50619Z" fill="#21BF73"/>
<path d="M34.6647 11.2001H32.6862L31.5951 8.34579C31.5072 8.12096 31.3713 7.96438 31.1874 7.87609C31.0116 7.78776 30.7878 7.74358 30.516 7.74358H29.3049V11.2001H27.4584V2.625H31.2594C32.2506 2.625 33.002 2.84179 33.5136 3.27536C34.0252 3.70894 34.281 4.3312 34.281 5.14216C34.281 5.71222 34.1291 6.202 33.8254 6.6115C33.5296 7.02096 33.1019 7.31404 32.5423 7.49066C33.0459 7.59504 33.4097 7.94434 33.6335 8.53847L34.6647 11.2001ZM30.9836 6.31037C31.5192 6.31037 31.9109 6.22208 32.1587 6.04542C32.4065 5.86075 32.5304 5.57572 32.5304 5.19032C32.5304 4.80493 32.4065 4.52388 32.1587 4.34726C31.9109 4.16259 31.5192 4.07025 30.9836 4.07025H29.2809V6.31037H30.9836Z" fill="white"/>
<path d="M41.919 5.09408V11.2002H40.1324V10.297C39.9486 10.6101 39.6888 10.855 39.3531 11.0316C39.0173 11.2083 38.6376 11.2966 38.2139 11.2966C37.6864 11.2966 37.2187 11.1681 36.811 10.9112C36.4113 10.6543 36.0956 10.2889 35.8638 9.81523C35.64 9.33346 35.5281 8.77945 35.5281 8.15317C35.5281 7.52689 35.64 6.96886 35.8638 6.47908C36.0956 5.98929 36.4154 5.61195 36.823 5.347C37.2307 5.074 37.6944 4.9375 38.2139 4.9375C38.6376 4.9375 39.0173 5.02981 39.3531 5.21448C39.6888 5.39915 39.9486 5.64809 40.1324 5.96121V5.09408H41.919ZM38.7415 9.91157C39.1892 9.91157 39.5329 9.75901 39.7727 9.4539C40.0125 9.14879 40.1324 8.70718 40.1324 8.12911C40.1324 7.55099 40.0125 7.10938 39.7727 6.80427C39.5329 6.49115 39.1892 6.33457 38.7415 6.33457C38.2939 6.33457 37.9461 6.49513 37.6983 6.8163C37.4505 7.13747 37.3266 7.58311 37.3266 8.15317C37.3266 8.72323 37.4466 9.16082 37.6864 9.46593C37.9342 9.76304 38.2859 9.91157 38.7415 9.91157Z" fill="white"/>
<path d="M50.8145 4.9375C51.5102 4.9375 52.0255 5.15026 52.3615 5.57581C52.705 5.99332 52.8769 6.63566 52.8769 7.50283V11.2002H51.0665V7.56302C51.0665 7.13747 50.9983 6.83236 50.8627 6.64769C50.7266 6.45501 50.503 6.35868 50.1911 6.35868C49.8236 6.35868 49.5397 6.48713 49.3397 6.74407C49.1398 7.00097 49.04 7.3623 49.04 7.82798V11.2002H47.2292V7.56302C47.2292 7.14552 47.1575 6.84041 47.0135 6.64769C46.8779 6.45501 46.6578 6.35868 46.3542 6.35868C45.9863 6.35868 45.6988 6.48713 45.4906 6.74407C45.2911 7.00097 45.1909 7.3623 45.1909 7.82798V11.2002H43.3805V6.84041C43.3805 6.19006 43.3485 5.60793 43.2845 5.09408H44.987L45.0951 6.00938C45.2788 5.66414 45.5348 5.39915 45.8625 5.21448C46.198 5.02981 46.5822 4.9375 47.0135 4.9375C47.917 4.9375 48.5163 5.31484 48.8121 6.06962C49.012 5.72434 49.2877 5.45134 49.6394 5.25062C49.999 5.04189 50.391 4.9375 50.8145 4.9375Z" fill="white"/>
<path d="M58.0224 4.9375C58.5422 4.9375 59.0059 5.074 59.4137 5.347C59.821 5.61195 60.1368 5.98929 60.3608 6.47908C60.5927 6.96886 60.7082 7.52689 60.7082 8.15317C60.7082 8.77945 60.5967 9.33346 60.3727 9.81523C60.1491 10.2889 59.8332 10.6543 59.4255 10.9112C59.0177 11.1681 58.55 11.2966 58.0224 11.2966C57.5989 11.2966 57.2192 11.2083 56.8836 11.0316C56.5476 10.855 56.2921 10.6101 56.1162 10.297V14.0001H54.3054V6.84041C54.3054 6.19006 54.2735 5.60793 54.2096 5.09408H55.9123L56.0322 6.10576C56.1919 5.74443 56.4478 5.45939 56.7996 5.25062C57.1592 5.04189 57.567 4.9375 58.0224 4.9375ZM57.507 9.91157C57.9546 9.91157 58.2985 9.76304 58.5382 9.46593C58.778 9.16082 58.8978 8.72323 58.8978 8.15317C58.8978 7.58311 58.774 7.13747 58.526 6.8163C58.2862 6.49513 57.9467 6.33457 57.507 6.33457C57.0595 6.33457 56.7117 6.49115 56.4636 6.80427C56.2238 7.10938 56.104 7.55099 56.104 8.12911C56.104 8.70718 56.2238 9.14879 56.4636 9.4539C56.7117 9.75901 57.0595 9.91157 57.507 9.91157Z" fill="white"/>
</g>
<defs>
<clipPath id="clip0_157_2217">
<rect width="60.375" height="14" fill="white" transform="translate(0.625)"/>
</clipPath>
</defs>
</svg>

<svg width="61" height="14" fill="none" xmlns="http://www.w3.org/2000/svg"><g style="mix-blend-mode:luminosity" clip-path="url(#clip0_157_2217)"><path d="M15.694 8.239l-2.65 2.66a.58.58 0 0 0 0 .817l2.025 2.028c.345.341.91.341 1.255 0l6.209-6.127a.87.87 0 0 0 0-1.239L16.324.256a.898.898 0 0 0-1.255 0l-2.025 2.028a.58.58 0 0 0 0 .817l2.65 2.66a1.74 1.74 0 0 1 0 2.478z" fill="#0A6E5C"/><path d="M7.723 8.239l2.65 2.66a.58.58 0 0 1 0 .817l-2.026 2.028a.898.898 0 0 1-1.255 0L.884 7.617a.87.87 0 0 1 0-1.239L7.092.256a.898.898 0 0 1 1.255 0l2.026 2.028a.58.58 0 0 1 0 .817l-2.65 2.66a1.74 1.74 0 0 0 0 2.478z" fill="#21BF73"/><path d="M8.418 7.506a.716.716 0 0 1 0-1.012l2.784-2.784a.716.716 0 0 1 1.013 0l2.784 2.784c.28.28.28.733 0 1.012l-2.784 2.784a.716.716 0 0 1-1.013 0L8.418 7.506z" fill="#21BF73"/><path d="M34.665 11.2h-1.979l-1.09-2.854c-.089-.225-.225-.382-.409-.47-.175-.088-.4-.132-.671-.132h-1.211V11.2h-1.847V2.625h3.801c.992 0 1.743.217 2.255.65.511.434.767 1.056.767 1.867 0 .57-.152 1.06-.456 1.47-.295.409-.723.702-1.283.879.504.104.868.453 1.091 1.047l1.032 2.662zm-3.681-4.89c.535 0 .927-.088 1.175-.265.248-.184.371-.47.371-.855s-.123-.666-.371-.843c-.248-.184-.64-.277-1.175-.277H29.28v2.24h1.703zM41.919 5.094V11.2h-1.787v-.903a1.916 1.916 0 0 1-.779.735 2.409 2.409 0 0 1-1.14.265c-.527 0-.994-.129-1.402-.386a2.65 2.65 0 0 1-.947-1.096c-.224-.482-.336-1.036-.336-1.662 0-.626.112-1.184.336-1.674.232-.49.551-.867.959-1.132.408-.273.871-.41 1.39-.41.425 0 .804.093 1.14.277a2 2 0 0 1 .78.747v-.867h1.786zm-3.177 4.818c.447 0 .79-.153 1.03-.458.24-.305.36-.747.36-1.325s-.12-1.02-.36-1.325c-.24-.313-.583-.47-1.03-.47-.448 0-.796.161-1.044.482-.248.321-.371.767-.371 1.337s.12 1.008.36 1.313c.247.297.599.446 1.055.446zM50.815 4.938c.695 0 1.21.212 1.547.638.343.417.515 1.06.515 1.927V11.2h-1.81V7.563c0-.426-.069-.73-.204-.915-.136-.193-.36-.29-.672-.29-.367 0-.651.13-.851.386-.2.257-.3.618-.3 1.084V11.2h-1.81V7.563c0-.417-.072-.723-.216-.915-.136-.193-.356-.29-.66-.29-.368 0-.655.13-.863.386-.2.257-.3.618-.3 1.084V11.2h-1.81V6.84c0-.65-.032-1.232-.096-1.746h1.702l.108.915c.184-.345.44-.61.767-.795.336-.184.72-.277 1.151-.277.904 0 1.503.378 1.8 1.133.199-.346.475-.619.826-.82a2.3 2.3 0 0 1 1.175-.313zM58.022 4.938c.52 0 .984.136 1.392.409.407.265.723.642.947 1.132.232.49.347 1.048.347 1.674 0 .626-.111 1.18-.335 1.662a2.54 2.54 0 0 1-.947 1.096 2.576 2.576 0 0 1-1.404.386c-.423 0-.803-.089-1.138-.265a1.836 1.836 0 0 1-.768-.735V14h-1.81V6.84c0-.65-.032-1.232-.096-1.746h1.702l.12 1.012c.16-.362.416-.647.768-.855.36-.21.767-.314 1.222-.314zm-.515 4.974c.448 0 .791-.149 1.031-.446.24-.305.36-.743.36-1.313s-.124-1.016-.372-1.337c-.24-.32-.58-.481-1.019-.481-.447 0-.795.156-1.043.47-.24.304-.36.746-.36 1.324 0 .578.12 1.02.36 1.325.248.305.596.458 1.043.458z" fill="#fff"/></g><defs><clipPath id="clip0_157_2217"><path fill="#fff" transform="translate(.625)" d="M0 0h60.375v14H0z"/></clipPath></defs></svg>
